X: 83
T:Untitled. HA.082
M:3/4
Q:90
S:Henry Atkinson's original MS,Hartburn,N'umberland,1694.
O:England
A:Hartburn,Northumberland
N:Key arrived at by implication, likewise E naturals in B strain by
N:preceding E being flattened in MS..CGP.
H:1/4
Z:vmp.Chris Partington.Jan.2004
K:Bb
"No Key Sig. in MS"ggd|g2a|b/a/"qu"gb|a/g/a/b/"qu"a|!
ggd|Bed|cA2|G3:|!
|:AdA|BGe|gd"b"e|=ece|!
a=eg|"sic"fdc'|e"cr"f2|g3:|]
